Catalina-dark/apps/22/evolution-tasks.svg

<?xml version="1.0" encoding="UTF-8" standalone="no"?>
<!-- Created with Inkscape (http://www.inkscape.org/) -->

<svg
   xmlns:dc="http://purl.org/dc/elements/1.1/"
   xmlns:cc="http://creativecommons.org/ns#"
   xmlns:rdf="http://www.w3.org/1999/02/22-rdf-syntax-ns#"
   xmlns:svg="http://www.w3.org/2000/svg"
   xmlns="http://www.w3.org/2000/svg"
   xmlns:sodipodi="http://sodipodi.sourceforge.net/DTD/sodipodi-0.dtd"
   xmlns:inkscape="http://www.inkscape.org/namespaces/inkscape"
   width="22"
   height="22"
   id="svg3752"
   version="1.1"
   inkscape:version="0.92.4 (unknown)"
   sodipodi:docname="evolution-tasks.svg"
   inkscape:export-filename="/home/silerio/Imágenes/iconos/email2.png"
   inkscape:export-xdpi="90"
   inkscape:export-ydpi="90">
  <defs
     id="defs3754">
    <clipPath
       clipPathUnits="userSpaceOnUse"
       id="clipPath4355">
      <path
         sodipodi:nodetypes="ccccccccccc"
         inkscape:connector-curvature="0"
         id="path4357"
         d="m 413.15743,-331.13406 -86.52622,-80.17627 -86.52623,80.17627 -86.52622,-80.17627 -86.526225,80.17627 V -10.2615 l 86.526225,-80.17627 86.52622,80.17627 86.52623,-80.17627 86.52622,80.17627 z"
         style="fill:#fcc199;fill-opacity:1;stroke:none" />
    </clipPath>
    <clipPath
       clipPathUnits="userSpaceOnUse"
       id="clipPath4087">
      <path
         sodipodi:nodetypes="cccsccccsccc"
         inkscape:connector-curvature="0"
         id="path4089"
         d="m 255.40592,22.97148 c -2.28704,0.0508 -4.54873,0.89886 -6.30518,2.36444 L 67.564098,177.67826 c -2.574541,2.1548 -3.967229,5.64239 -3.585104,8.97787 0.382126,3.33547 2.527474,6.41774 5.522634,7.93446 l 186.068482,94.21646 c 2.84639,1.4447 6.38151,1.4447 9.2279,0 l 186.06847,-94.21646 c 3.03867,-1.52923 5.2057,-4.66969 5.55708,-8.05326 0.35137,-3.38358 -1.12414,-6.90229 -3.78375,-9.02327 L 262.03949,25.20456 c -1.85909,-1.48849 -4.2528,-2.29429 -6.63357,-2.23308 z"
         style="color:#000000;font-style:normal;font-variant:normal;font-weight:normal;font-stretch:normal;font-size:medium;line-height:normal;font-family:Sans;-inkscape-font-specification:Sans;text-indent:0;text-align:start;text-decoration:none;text-decoration-line:none;letter-spacing:normal;word-spacing:normal;text-transform:none;writing-mode:lr-tb;direction:ltr;baseline-shift:baseline;text-anchor:start;display:inline;overflow:visible;visibility:visible;fill:#c87137;fill-opacity:1;fill-rule:nonzero;stroke:none;stroke-width:19.39999962;marker:none;enable-background:accumulate" />
    </clipPath>
    <clipPath
       clipPathUnits="userSpaceOnUse"
       id="clipPath4139">
      <path
         sodipodi:nodetypes="scssssssss"
         inkscape:connector-curvature="0"
         id="path4141"
         d="M 533.97954,176.85017 731.76001,305.5436 929.54048,176.85017 c 13.30694,-8.65867 28.65703,12.78103 28.65703,28.65703 v 207.2301 c 0,15.87599 -12.78103,28.65703 -28.65703,28.65703 H 533.97954 c -15.876,0 -28.65703,-12.78104 -28.65703,-28.65703 V 205.5072 c 0,-15.876 12.78103,-28.65703 28.65703,-28.65703 z"
         style="color:#000000;display:inline;overflow:visible;visibility:visible;fill:#deaa87;fill-opacity:1;fill-rule:evenodd;stroke:none;stroke-width:7;marker:none;enable-background:accumulate" />
    </clipPath>
  </defs>
  <sodipodi:namedview
     id="base"
     pagecolor="#ffffff"
     bordercolor="#666666"
     borderopacity="1.0"
     inkscape:pageopacity="0.0"
     inkscape:pageshadow="2"
     inkscape:zoom="16"
     inkscape:cx="13.539034"
     inkscape:cy="13.686758"
     inkscape:current-layer="layer1"
     showgrid="true"
     inkscape:grid-bbox="true"
     inkscape:document-units="px"
     inkscape:window-width="1920"
     inkscape:window-height="1016"
     inkscape:window-x="0"
     inkscape:window-y="27"
     inkscape:window-maximized="1"
     units="px"
     width="512px"
     showguides="true"
     inkscape:guide-bbox="true" />
  <metadata
     id="metadata3757">
    <rdf:RDF>
      <cc:Work
         rdf:about="">
        <dc:format>image/svg+xml</dc:format>
        <dc:type
           rdf:resource="http://purl.org/dc/dcmitype/StillImage" />
        <dc:title></dc:title>
      </cc:Work>
    </rdf:RDF>
  </metadata>
  <g
     id="layer1"
     inkscape:label="Layer 1"
     inkscape:groupmode="layer"
     transform="translate(0,-25.99996)">
    <g
       aria-label="@"
       style="font-style:normal;font-variant:normal;font-weight:bold;font-stretch:normal;font-size:9.7591629px;line-height:1.25;font-family:sans-serif;-inkscape-font-specification:'sans-serif Bold';letter-spacing:0px;word-spacing:0px;fill:#000000;fill-opacity:1;stroke:none;stroke-width:0.24397908"
       id="text912"
       transform="translate(-0.1880363,-0.4737693)" />
    <g
       transform="matrix(0.32434464,0,0,0.32434464,1.2101296,28.796769)"
       id="g997"
       style="font-style:normal;font-variant:normal;font-weight:normal;font-stretch:normal;font-size:40px;line-height:1.25;font-family:'DejaVu Sans';-inkscape-font-specification:'DejaVu Sans';letter-spacing:0px;word-spacing:0px;fill:#000000;fill-opacity:1;stroke:none"
       aria-label="14" />
    <path
       style="opacity:1;fill:#000000;fill-opacity:0.44444448;stroke:none;stroke-width:6;stroke-miterlimit:4;stroke-dasharray:none;stroke-opacity:0.01176471"
       d="M 4.8691406 2.9375 C 4.0069942 2.9375 3.3125 3.6319942 3.3125 4.4941406 L 3.3125 19.630859 C 3.3125 20.493006 4.0069942 21.1875 4.8691406 21.1875 L 16.818359 21.1875 C 17.680506 21.1875 18.375 20.493006 18.375 19.630859 L 18.375 4.4941406 C 18.375 3.6319942 17.680506 2.9375 16.818359 2.9375 L 15.21875 2.9375 L 15.21875 4.0273438 L 16.263672 4.0273438 C 16.848818 4.0273438 17.318359 4.4988379 17.318359 5.0839844 L 17.318359 19.041016 C 17.318359 19.626162 16.848818 20.097656 16.263672 20.097656 L 5.4238281 20.097656 C 4.8386817 20.097656 4.3691406 19.626162 4.3691406 19.041016 L 4.3691406 5.0839844 C 4.3691406 4.4988379 4.8386817 4.0273438 5.4238281 4.0273438 L 6.34375 4.0273438 L 6.34375 2.9375 L 4.8691406 2.9375 z "
       transform="translate(0,25.99996)"
       id="rect1043" />
    <path
       style="opacity:1;fill:#000000;fill-opacity:0.11111111;stroke:none;stroke-width:6;stroke-miterlimit:4;stroke-dasharray:none;stroke-opacity:0.01176471"
       d="M 5.4238281 4.0273438 C 4.8386817 4.0273438 4.3691406 4.4988379 4.3691406 5.0839844 L 4.3691406 19.041016 C 4.3691406 19.626162 4.8386817 20.097656 5.4238281 20.097656 L 16.263672 20.097656 C 16.848818 20.097656 17.318359 19.626162 17.318359 19.041016 L 17.318359 5.0839844 C 17.318359 4.4988379 16.848818 4.0273438 16.263672 4.0273438 L 15.21875 4.0273438 L 15.21875 4.0371094 C 15.21875 4.6049423 14.761192 5.0625 14.193359 5.0625 L 7.3691406 5.0625 C 6.8013077 5.0625 6.34375 4.6049423 6.34375 4.0371094 L 6.34375 4.0273438 L 5.4238281 4.0273438 z "
       id="rect1045"
       transform="translate(0,25.99996)" />
    <path
       style="opacity:1;fill:#000000;fill-opacity:0.58666664;stroke:none;stroke-width:6;stroke-miterlimit:4;stroke-dasharray:none;stroke-opacity:0.01176471"
       d="M 7.3691406 1.28125 C 6.8013077 1.28125 6.34375 1.7388077 6.34375 2.3066406 L 6.34375 4.0371094 C 6.34375 4.6049423 6.8013077 5.0625 7.3691406 5.0625 L 14.193359 5.0625 C 14.761192 5.0625 15.21875 4.6049423 15.21875 4.0371094 L 15.21875 2.3066406 C 15.21875 1.7388077 14.761192 1.28125 14.193359 1.28125 L 7.3691406 1.28125 z M 7.8320312 1.9492188 L 13.730469 1.9492188 C 14.125177 1.9492188 14.443359 2.2674015 14.443359 2.6621094 L 14.443359 3.6816406 C 14.443359 4.0763485 14.125177 4.3945312 13.730469 4.3945312 L 7.8320312 4.3945312 C 7.4373234 4.3945312 7.1191406 4.0763485 7.1191406 3.6816406 L 7.1191406 2.6621094 C 7.1191406 2.2674015 7.4373234 1.9492188 7.8320312 1.9492188 z "
       transform="translate(0,25.99996)"
       id="rect1050" />
    <rect
       ry="0.7124691"
       rx="0.7124691"
       y="27.949188"
       x="7.1197281"
       height="2.4452953"
       width="7.3230438"
       id="rect1052"
       style="opacity:1;fill:#000000;fill-opacity:0.09333333;stroke:none;stroke-width:6;stroke-miterlimit:4;stroke-dasharray:none;stroke-opacity:0.01176471" />
    <path
       style="opacity:1;fill:#000000;fill-opacity:0.36134455;stroke:none;stroke-width:6;stroke-miterlimit:4;stroke-dasharray:none;stroke-opacity:0.01176471"
       d="M 5.65625 7.65625 L 5.65625 10.4375 L 8.4375 10.4375 L 8.4375 7.65625 L 5.65625 7.65625 z M 5.65625 11.703125 L 5.65625 14.484375 L 8.4375 14.484375 L 8.4375 11.703125 L 5.65625 11.703125 z M 5.65625 15.75 L 5.65625 18.53125 L 8.4375 18.53125 L 8.4375 15.75 L 5.65625 15.75 z "
       transform="translate(0,25.99996)"
       id="rect1069" />
    <path
       style="color:#000000;font-style:normal;font-variant:normal;font-weight:normal;font-stretch:normal;font-size:medium;line-height:normal;font-family:sans-serif;font-variant-ligatures:normal;font-variant-position:normal;font-variant-caps:normal;font-variant-numeric:normal;font-variant-alternates:normal;font-feature-settings:normal;text-indent:0;text-align:start;text-decoration:none;text-decoration-line:none;text-decoration-style:solid;text-decoration-color:#000000;letter-spacing:normal;word-spacing:normal;text-transform:none;writing-mode:lr-tb;direction:ltr;text-orientation:mixed;dominant-baseline:auto;baseline-shift:baseline;text-anchor:start;white-space:normal;shape-padding:0;clip-rule:nonzero;display:inline;overflow:visible;visibility:visible;opacity:1;isolation:auto;mix-blend-mode:normal;color-interpolation:sRGB;color-interpolation-filters:linearRGB;solid-color:#000000;solid-opacity:1;vector-effect:none;fill:#000000;fill-opacity:0.53361344;fill-rule:nonzero;stroke:none;stroke-width:1px;stroke-linecap:butt;stroke-linejoin:miter;stroke-miterlimit:4;stroke-dasharray:none;stroke-dashoffset:0;stroke-opacity:1;color-rendering:auto;image-rendering:auto;shape-rendering:auto;text-rendering:auto;enable-background:accumulate"
       d="M 14.535156 6.2714844 L 10.480469 8.9746094 L 10.152344 8.40625 L 9.2851562 8.90625 L 10.146484 10.400391 L 15.089844 7.1035156 L 14.535156 6.2714844 z M 14.535156 10.208984 L 10.480469 12.912109 L 10.152344 12.34375 L 9.2851562 12.84375 L 10.146484 14.337891 L 15.089844 11.041016 L 14.535156 10.208984 z "
       transform="translate(0,25.99996)"
       id="path1075" />
  </g>
</svg>

<svg width="22" height="22" version="1.1" xmlns="http://www.w3.org/2000/svg">
<g transform="translate(0 -26)">
<path transform="translate(0 26)" d="m4.8691 2.9375c-0.86215 0-1.5566 0.69449-1.5566 1.5566v15.137c0 0.86215 0.69449 1.5566 1.5566 1.5566h11.949c0.86215 0 1.5566-0.69449 1.5566-1.5566v-15.137c0-0.86215-0.69449-1.5566-1.5566-1.5566h-1.5996v1.0898h1.0449c0.58515 0 1.0547 0.47149 1.0547 1.0566v13.957c0 0.58515-0.46954 1.0566-1.0547 1.0566h-10.84c-0.58515 0-1.0547-0.47149-1.0547-1.0566v-13.957c0-0.58515 0.46954-1.0566 1.0547-1.0566h0.91992v-1.0898h-1.4746z" fill-opacity=".44444"/>
<path transform="translate(0 26)" d="m5.4238 4.0273c-0.58515 0-1.0547 0.47149-1.0547 1.0566v13.957c0 0.58515 0.46954 1.0566 1.0547 1.0566h10.84c0.58515 0 1.0547-0.47149 1.0547-1.0566v-13.957c0-0.58515-0.46954-1.0566-1.0547-1.0566h-1.0449v0.0097656c0 0.56783-0.45756 1.0254-1.0254 1.0254h-6.8242c-0.56783 0-1.0254-0.45756-1.0254-1.0254v-0.0097656h-0.91992z" fill-opacity=".11111"/>
<path transform="translate(0 26)" d="m7.3691 1.2812c-0.56783 0-1.0254 0.45756-1.0254 1.0254v1.7305c0 0.56783 0.45756 1.0254 1.0254 1.0254h6.8242c0.56783 0 1.0254-0.45756 1.0254-1.0254v-1.7305c0-0.56783-0.45756-1.0254-1.0254-1.0254h-6.8242zm0.46289 0.66797h5.8984c0.39471 0 0.71289 0.31818 0.71289 0.71289v1.0195c0 0.39471-0.31818 0.71289-0.71289 0.71289h-5.8984c-0.39471 0-0.71289-0.31818-0.71289-0.71289v-1.0195c0-0.39471 0.31818-0.71289 0.71289-0.71289z" fill-opacity=".58667"/>
<rect x="7.1197" y="27.949" width="7.323" height="2.4453" rx=".71247" ry=".71247" fill-opacity=".093333"/>
<path transform="translate(0 26)" d="m5.6562 7.6562v2.7812h2.7812v-2.7812h-2.7812zm0 4.0469v2.7812h2.7812v-2.7812h-2.7812zm0 4.0469v2.7812h2.7812v-2.7812h-2.7812z" fill-opacity=".36134"/>
<path transform="translate(0 26)" d="m14.535 6.2715-4.0547 2.7031-0.32812-0.56836-0.86719 0.5 0.86133 1.4941 4.9434-3.2969-0.55469-0.83203zm0 3.9375-4.0547 2.7031-0.32812-0.56836-0.86719 0.5 0.86133 1.4941 4.9434-3.2969-0.55469-0.83203z" color="#000000" color-rendering="auto" dominant-baseline="auto" fill-opacity=".53361" image-rendering="auto" shape-rendering="auto" solid-color="#000000" style="font-feature-settings:normal;font-variant-alternates:normal;font-variant-caps:normal;font-variant-ligatures:normal;font-variant-numeric:normal;font-variant-position:normal;isolation:auto;mix-blend-mode:normal;shape-padding:0;text-decoration-color:#000000;text-decoration-line:none;text-decoration-style:solid;text-indent:0;text-orientation:mixed;text-transform:none;white-space:normal"/>
</g>
</svg>
